src/lib/packages/icons/src/assets/filled/warehouse.svg

<svg width="24" height="24" viewBox="0 0 24 24" fill="none" xmlns="http://www.w3.org/2000/svg">
<path d="M16.75 13.4999V14.7499H7.25V13.4999C7.25 12.9099 7.41 12.7499 8 12.7499H16C16.59 12.7499 16.75 12.9099 16.75 13.4999ZM7.25 17.7499H16.75V16.2499H7.25V17.7499ZM7.25 20.6999C7.25 20.8659 7.38405 20.9999 7.55005 20.9999H16.45C16.616 20.9999 16.75 20.8659 16.75 20.6999V19.2499H7.25V20.6999ZM21 8.59003V19.4999C21 20.3279 20.328 20.9999 19.5 20.9999H18.55C18.384 20.9999 18.25 20.8659 18.25 20.6999V13.4999C18.25 12.2569 17.243 11.2499 16 11.2499H8C6.757 11.2499 5.75 12.2569 5.75 13.4999V20.6999C5.75 20.8659 5.61595 20.9999 5.44995 20.9999H4.5C3.672 20.9999 3 20.3279 3 19.4999V8.59003C3 8.04003 3.29002 7.53996 3.77002 7.26996L11.03 3.24994C11.63 2.91994 12.37 2.91994 12.97 3.24994L20.23 7.26996C20.7 7.53996 21 8.04003 21 8.59003ZM14.25 7.99994C14.25 7.58594 13.914 7.24994 13.5 7.24994H10.5C10.086 7.24994 9.75 7.58594 9.75 7.99994C9.75 8.41394 10.086 8.74994 10.5 8.74994H13.5C13.914 8.74994 14.25 8.41394 14.25 7.99994Z" fill="currentColor"/>
</svg>

<svg xmlns="http://www.w3.org/2000/svg" width="24" height="24" fill="none"><path fill="currentColor" d="M16.75 13.5v1.25h-9.5V13.5c0-.59.16-.75.75-.75h8c.59 0 .75.16.75.75Zm-9.5 4.25h9.5v-1.5h-9.5v1.5Zm0 2.95a.3.3 0 0 0 .3.3h8.9a.3.3 0 0 0 .3-.3v-1.45h-9.5v1.45ZM21 8.59V19.5a1.5 1.5 0 0 1-1.5 1.5h-.95a.3.3 0 0 1-.3-.3v-7.2A2.25 2.25 0 0 0 16 11.25H8a2.25 2.25 0 0 0-2.25 2.25v7.2a.3.3 0 0 1-.3.3H4.5A1.5 1.5 0 0 1 3 19.5V8.59c0-.55.29-1.05.77-1.32l7.26-4.02c.6-.33 1.34-.33 1.94 0l7.26 4.02c.47.27.77.77.77 1.32ZM14.25 8a.75.75 0 0 0-.75-.75h-3a.75.75 0 0 0 0 1.5h3a.75.75 0 0 0 .75-.75Z"/></svg>
